azad_website/azad/static/assets/images/brands/graygrids.svg

<svg width="200" height="47" viewBox="0 0 200 47" fill="none" xmlns="http://www.w3.org/2000/svg">
<path d="M75.5301 31.8596H72.292V14.1332H78.9419C79.745 14.1211 80.5411 14.2857 81.2735 14.6155C81.9469 14.9207 82.5533 15.3562 83.058 15.8967C83.5506 16.4232 83.9405 17.0371 84.2076 17.7071C84.6749 18.8552 84.7468 20.1263 84.4116 21.3198C84.2746 21.8124 84.0683 22.2828 83.7992 22.7175C83.2252 23.6361 82.4073 24.3769 81.4369 24.8569C82.3026 26.038 83.1635 27.2075 84.0197 28.3654C84.8758 29.5233 85.7415 30.6881 86.6168 31.8596H84.0728C83.864 31.8547 83.6572 31.8167 83.4602 31.7473C83.2047 31.6631 82.9615 31.5448 82.7375 31.3957C82.4592 31.2159 82.1982 31.0106 81.9576 30.7827C81.665 30.4961 81.4023 30.1804 81.1735 29.8407L77.9476 25.4863H75.5301V31.8596ZM79.0419 22.223C79.3514 22.2212 79.6566 22.1514 79.9362 22.0187C80.2165 21.8916 80.4691 21.7103 80.6794 21.4853C80.8918 21.2605 81.0612 20.9988 81.1797 20.713C81.3019 20.4261 81.3651 20.1175 81.3654 19.8056C81.3657 19.4884 81.3026 19.1745 81.1797 18.882C81.0602 18.5968 80.8908 18.3352 80.6794 18.1097C80.4685 17.8859 80.2161 17.7054 79.9362 17.5784C79.657 17.4447 79.3515 17.3748 79.0419 17.374H75.5301V22.2107L79.0419 22.223Z" fill="#070707"/>
<path d="M95.2659 14.1326H98.2016L105.955 31.8594H103.936C103.49 31.8634 103.052 31.7393 102.674 31.5019C102.296 31.2649 101.998 30.9194 101.819 30.5108L100.765 28.1118H92.7024L91.6631 30.5108C91.578 30.7105 91.4605 30.8948 91.3153 31.0564C91.1666 31.2207 90.9959 31.3637 90.808 31.4814C90.6177 31.6027 90.411 31.6963 90.1943 31.7593C89.9797 31.8258 89.7562 31.8595 89.5314 31.8594H87.5122L95.2659 14.1326ZM94.1386 24.8566H99.3289L97.013 19.4885C96.9143 19.2709 96.8415 19.0425 96.7962 18.808C96.7593 18.6036 96.7348 18.4442 96.7266 18.338C96.7115 18.498 96.6869 18.657 96.653 18.8141C96.6071 19.045 96.5385 19.2709 96.4484 19.4885L94.1386 24.8566Z" fill="#070707"/>
<path d="M115.276 31.8596H112.019V24.3501C112.023 24.1043 111.964 23.8615 111.847 23.6453C111.708 23.402 111.555 23.1667 111.389 22.9403L104.881 14.1333H107.368C107.867 14.1226 108.361 14.2327 108.809 14.4541C109.227 14.6696 109.583 14.989 109.843 15.3818L113.343 20.1204C113.446 20.2577 113.522 20.4129 113.568 20.578C113.609 20.7334 113.631 20.8335 113.639 20.8744C113.655 20.776 113.678 20.679 113.709 20.5842C113.758 20.4154 113.84 20.2578 113.95 20.1204L117.438 15.3941C117.692 14.9919 118.049 14.6651 118.472 14.4479C118.921 14.2306 119.415 14.1227 119.913 14.1333H122.429L115.904 22.9525C115.806 23.0854 115.718 23.2058 115.646 23.3183C115.572 23.4235 115.504 23.5327 115.442 23.6453C115.385 23.7512 115.342 23.8637 115.313 23.9804C115.283 24.1012 115.268 24.2255 115.27 24.3501L115.276 31.8596Z" fill="#070707"/>
<path d="M140.335 23.3506V30.1609C139.934 30.5302 139.481 30.8405 138.992 31.0823C138.491 31.3291 137.965 31.5238 137.423 31.6633C136.855 31.8079 136.276 31.9067 135.691 31.9588C135.095 32.0119 134.488 32.0384 133.876 32.0384C132.655 32.047 131.447 31.8048 130.326 31.327C129.244 30.87 128.259 30.2127 127.426 29.3905C126.595 28.5677 125.931 27.5938 125.472 26.5224C125 25.4067 124.757 24.209 124.757 22.999C124.757 21.7891 125 20.5913 125.472 19.4756C125.934 18.4006 126.6 17.4241 127.434 16.5994C128.269 15.7777 129.252 15.1206 130.334 14.6629C132.58 13.7299 135.107 13.7167 137.363 14.6262C138.426 15.0662 139.394 15.7002 140.22 16.4955L140.097 16.6076C139.951 16.7537 139.78 16.8726 139.593 16.9581C139.401 17.038 139.195 17.0776 138.988 17.0743C138.702 17.0763 138.423 16.99 138.19 16.8277C137.573 16.4078 136.899 16.0776 136.187 15.8472C135.443 15.6098 134.665 15.4914 133.884 15.4966C133.204 15.494 132.528 15.583 131.872 15.7616C131.24 15.9326 130.633 16.1876 130.069 16.5199C129.511 16.8466 128.995 17.2402 128.535 17.692C128.075 18.1447 127.678 18.6552 127.352 19.2106C127.022 19.7749 126.765 20.3783 126.587 21.0064C126.402 21.6544 126.311 22.3248 126.313 22.998C126.311 23.6723 126.405 24.3436 126.593 24.9915C126.961 26.2492 127.651 27.3907 128.598 28.304C129.068 28.7578 129.592 29.1522 130.159 29.4781C130.736 29.8091 131.355 30.064 131.998 30.2364C132.656 30.4145 133.336 30.5037 134.02 30.5014C134.865 30.5042 135.708 30.3903 136.522 30.163C137.331 29.934 138.102 29.5907 138.813 29.1438V24.8916H137.231C137.028 24.8952 136.827 24.857 136.64 24.7794C136.451 24.702 136.283 24.5867 136.142 24.4412C136.013 24.3031 135.912 24.1419 135.843 23.9663C135.773 23.7847 135.738 23.5919 135.738 23.3976V23.3486L140.335 23.3506Z" fill="#070707"/>
<path d="M147.095 31.8596H145.528V14.1327H151.819C152.495 14.1274 153.165 14.2596 153.788 14.521C154.384 14.7726 154.926 15.1339 155.384 15.5856C155.843 16.0381 156.209 16.5738 156.463 17.1632C156.728 17.7725 156.862 18.4292 156.858 19.0921C156.859 19.6957 156.752 20.2947 156.543 20.8618C156.343 21.4166 156.051 21.935 155.68 22.3964C155.312 22.8488 154.862 23.2287 154.351 23.5162C153.831 23.8094 153.255 23.9924 152.659 24.0537L158.599 31.8596H157.86C157.001 31.8596 156.363 31.5449 155.956 30.9217L150.728 24.0537H147.095V31.8596ZM147.095 15.6776V22.5068H151.819C152.281 22.5097 152.741 22.4194 153.166 22.2411C153.579 22.0695 153.953 21.8211 154.27 21.5096C154.586 21.1969 154.838 20.828 155.015 20.4225C155.2 20.0028 155.294 19.5497 155.291 19.0921C155.294 18.6373 155.2 18.1868 155.015 17.77C154.657 16.9524 153.996 16.3009 153.166 15.9494C152.742 15.7673 152.282 15.6747 151.819 15.6776H147.095Z" fill="#070707"/>
<path d="M164.15 31.8595H162.718V14.1326H164.15V31.8595Z" fill="#070707"/>
<path d="M170.238 31.8594V14.1326H176.76C178.332 14.1264 179.877 14.5451 181.23 15.3444C182.545 16.1201 183.642 17.2161 184.419 18.5301C185.216 19.8855 185.637 21.4295 185.637 23.0022C185.637 24.5747 185.216 26.1188 184.419 27.4743C184.031 28.128 183.564 28.7308 183.027 29.2683C181.943 30.3528 180.595 31.1366 179.117 31.5428C178.35 31.7562 177.557 31.8628 176.76 31.8594H170.238ZM176.76 30.3125C177.743 30.3204 178.717 30.125 179.622 29.7383C180.488 29.3678 181.278 28.8367 181.948 28.1731C182.617 27.5068 183.151 26.7171 183.52 25.8476C183.899 24.9468 184.094 23.9794 184.094 23.0022C184.094 22.0248 183.899 21.0574 183.52 20.1567C183.15 19.2859 182.616 18.4943 181.948 17.8251C181.279 17.1589 180.489 16.6257 179.622 16.2537C178.717 15.8664 177.744 15.6702 176.76 15.6774H171.785V30.3125H176.76Z" fill="#070707"/>
<path d="M196.863 16.4735C196.672 16.3429 196.503 16.2185 196.36 16.1042C196.06 15.8646 195.71 15.6957 195.335 15.6105C195.065 15.5557 194.79 15.5311 194.514 15.5371C194.049 15.5344 193.585 15.6161 193.149 15.7778C192.736 15.9291 192.351 16.1484 192.012 16.4266C191.693 16.6892 191.429 17.0125 191.237 17.3773C191.049 17.7311 190.95 18.1256 190.951 18.5259C190.94 18.9127 191 19.2984 191.133 19.6623C191.264 19.9729 191.477 20.2432 191.748 20.4458C192.093 20.7072 192.473 20.9194 192.878 21.0763C193.345 21.2694 193.923 21.4856 194.61 21.725C194.976 21.8611 195.317 21.9848 195.636 22.0964C195.95 22.2106 196.252 22.329 196.53 22.4472C196.8 22.5605 197.063 22.6879 197.319 22.8287C197.563 22.9662 197.798 23.1211 198.02 23.2919C198.579 23.7069 199.007 24.2736 199.25 24.9241C199.492 25.6026 199.612 26.318 199.603 27.0377C199.615 27.7594 199.457 28.474 199.144 29.1249C198.847 29.7313 198.424 30.2682 197.903 30.6999C197.362 31.1435 196.74 31.4807 196.071 31.6935C195.345 31.929 194.585 32.0454 193.821 32.0383C192.273 32.0383 190.97 31.5813 189.909 30.6672C189.643 30.4261 189.397 30.1641 189.171 29.8839C188.992 29.6579 188.828 29.42 188.681 29.1718L188.866 29.0616C189.102 28.9168 189.372 28.8358 189.649 28.827C189.842 28.8261 190.034 28.8529 190.22 28.9065C190.403 28.9615 190.571 29.0619 190.706 29.1983C190.99 29.4679 191.3 29.7098 191.63 29.9206C191.876 30.0734 192.138 30.1979 192.412 30.2919C192.642 30.3665 192.879 30.4137 193.12 30.4327C193.346 30.449 193.58 30.4612 193.821 30.4694C194.326 30.4853 194.829 30.429 195.316 30.3021C195.802 30.184 196.262 29.9763 196.67 29.69C197.073 29.4058 197.409 29.0366 197.652 28.6087C197.916 28.1291 198.048 27.5884 198.033 27.0419C198.056 26.4826 197.955 25.9251 197.735 25.4097C197.548 25.0165 197.265 24.6754 196.914 24.4161C196.531 24.1446 196.11 23.9301 195.665 23.7796C195.185 23.6096 194.667 23.4177 194.113 23.2042C193.409 22.9247 192.767 22.6635 192.188 22.4269C191.657 22.2149 191.158 21.9299 190.706 21.5801C190.297 21.258 189.969 20.846 189.748 20.3764C189.499 19.7912 189.384 19.1587 189.407 18.524C189.399 17.8698 189.557 17.224 189.866 16.647C190.165 16.0955 190.567 15.6064 191.052 15.2065C191.541 14.8058 192.097 14.4923 192.693 14.2804C193.28 14.0673 193.9 13.9569 194.524 13.9539C195.007 13.9478 195.487 14.0166 195.948 14.1579C196.356 14.2849 196.747 14.4589 197.113 14.6761C197.457 14.879 197.778 15.1169 198.071 15.3861C198.356 15.65 198.619 15.9098 198.859 16.1655L198.473 16.4368C198.369 16.5126 198.255 16.573 198.133 16.6163C197.981 16.6647 197.823 16.6875 197.665 16.6837C197.383 16.6936 197.103 16.6205 196.863 16.4735Z" fill="#070707"/>
<path d="M67.0338 22.3796V29.8101C66.6026 30.242 66.1131 30.6122 65.5792 30.9098C65.0588 31.1994 64.5075 31.4304 63.9356 31.5988C63.3526 31.7689 62.7549 31.8846 62.1503 31.9443C61.5285 32.0074 60.9038 32.0388 60.2788 32.0382C59.0621 32.0479 57.8566 31.8084 56.7368 31.3351C55.6567 30.8769 54.6726 30.221 53.836 29.4012C53.0041 28.5777 52.3395 27.6027 51.8781 26.5293C51.3977 25.4148 51.1542 24.2136 51.1631 23.001C51.1539 21.3962 51.5797 19.8186 52.3957 18.4344C52.7954 17.7633 53.2787 17.1452 53.8339 16.5946C54.9516 15.4873 56.3391 14.6879 57.8606 14.2745C58.6489 14.0583 59.4632 13.9504 60.2807 13.9536C60.9378 13.9525 61.5927 14.0273 62.2325 14.1763C62.8704 14.3239 63.4904 14.5398 64.0816 14.8202C64.6762 15.1073 65.2424 15.4495 65.7724 15.8423C66.3141 16.2415 66.8182 16.6889 67.2783 17.1793L66.5304 17.9336C66.3187 18.1644 66.0592 18.347 65.7698 18.4688C65.4804 18.5905 65.1681 18.6484 64.854 18.6388C64.3997 18.6425 63.9557 18.5045 63.5843 18.2443C63.111 17.9204 62.5935 17.6658 62.0476 17.4879C61.4797 17.3047 60.886 17.213 60.289 17.216C59.5121 17.2132 58.743 17.369 58.0291 17.6739C56.6239 18.258 55.4989 19.3583 54.8878 20.7462C54.5763 21.4552 54.4175 22.2211 54.4214 22.9948C54.4153 23.7819 54.5807 24.5609 54.9063 25.2782C55.3861 26.3286 56.1596 27.2193 57.1346 27.8438C58.1095 28.4683 59.2445 28.8004 60.404 28.8003C60.7995 28.791 61.194 28.7575 61.5854 28.7002C61.9548 28.645 62.3205 28.567 62.6804 28.467C63.0566 28.3638 63.4167 28.2097 63.7507 28.0093V25.5174L62.7235 25.499C62.4152 25.5002 62.1102 25.4346 61.8298 25.3068C61.5561 25.1738 61.3349 24.9537 61.2012 24.6813C61.0195 24.2715 60.9384 23.8244 60.9649 23.3772V22.3856L67.0338 22.3796Z" fill="#070707"/>
<path d="M43.8741 25.8933C45.3307 14.5062 37.2806 4.09427 25.8933 2.63757C14.5063 1.18086 4.09428 9.23106 2.63757 20.6182C1.18087 32.0053 9.23107 42.4173 20.6182 43.874C32.0053 45.3307 42.4173 37.2805 43.8741 25.8933Z" fill="#070707"/>
<path d="M24.0262 22.9287V24.9213H28.3896V28.2541H24.0569V28.2423C23.9411 28.2423 23.8205 28.2541 23.7047 28.2541C23.0611 28.2559 22.4236 28.128 21.8303 27.8783C20.9682 27.5137 20.2294 26.908 19.703 26.1339C19.0564 25.1758 18.7763 24.017 18.9137 22.8694C19.0512 21.7218 19.5971 20.6619 20.4516 19.8837C21.3062 19.1055 22.4123 18.6608 23.5678 18.6309C24.7233 18.6011 25.8508 18.9881 26.7444 19.7212H35.2536C35.1449 19.3809 35.0173 19.0452 34.8826 18.719C34.0291 16.6972 32.6434 14.9446 30.873 13.6477C29.1027 12.3509 27.0137 11.5583 24.8287 11.3543C22.6436 11.1503 20.4441 11.5426 18.4643 12.4894C16.4844 13.4361 14.7983 14.9019 13.5854 16.7309C12.3725 18.5597 11.678 20.6833 11.5761 22.8755C11.4742 25.0677 11.9685 27.2466 13.0065 29.1801C14.0444 31.1137 15.5872 32.7296 17.4707 33.856C19.3542 34.9825 21.5078 35.5772 23.7023 35.5768H35.7571V22.924L24.0262 22.9287ZM28.3896 33.5653H24.3713C24.22 33.5653 24.064 33.5818 23.8985 33.5843H23.5487C21.8065 33.5598 20.1 33.087 18.5937 32.2115C17.0873 31.3359 15.832 30.087 14.9485 28.5853C14.0651 27.0836 13.5835 25.3795 13.55 23.6375C13.5165 21.8955 13.9323 20.1743 14.7575 18.6397C15.5825 17.1051 16.789 15.8089 18.2606 14.8761C19.7321 13.9433 21.4192 13.4053 23.1591 13.314C24.8991 13.2227 26.6332 13.5811 28.1943 14.3548C29.7555 15.1284 31.091 16.2912 32.0721 17.731H27.3968C26.5076 17.1573 25.4969 16.7988 24.4449 16.6839C23.3929 16.569 22.3287 16.701 21.3366 17.0694C20.3447 17.4377 19.4521 18.0323 18.73 18.8058C18.0078 19.5793 17.4761 20.5105 17.1766 21.5255C16.8773 22.5405 16.8187 23.6113 17.0056 24.653C17.1925 25.6945 17.6196 26.6782 18.2529 27.5259C18.8864 28.3736 19.7087 29.0619 20.6547 29.5363C21.6006 30.0106 22.6441 30.258 23.7023 30.2586H28.3896V33.5653ZM33.7835 33.5843H30.3844L30.4034 33.5724H30.3844V30.2632H33.7835V33.5843ZM33.7835 28.2588H30.3844V24.926H33.7835V28.2588Z" fill="#262626"/>
<path d="M23.4375 22.2999V24.2925H27.8032V27.6252H23.4659V27.6135C23.3501 27.6135 23.2295 27.6252 23.1161 27.6252C22.3269 27.6268 21.5496 27.4333 20.8532 27.0622C20.1568 26.6911 19.5628 26.1537 19.1238 25.498C18.6779 24.8334 18.4038 24.0685 18.3262 23.2719C18.2487 22.4753 18.3701 21.6719 18.6794 20.9337C19.0436 20.0705 19.6503 19.3315 20.4262 18.8064C21.0897 18.3591 21.8544 18.0841 22.6509 18.0065C23.4474 17.929 24.2507 18.0512 24.9881 18.362C25.4138 18.5409 25.8118 18.7797 26.17 19.0712H34.6793C34.5681 18.7307 34.4429 18.3951 34.3081 18.069C33.4516 16.0506 32.0644 14.302 30.2938 13.0089C28.5233 11.7157 26.4355 10.9263 24.2523 10.7245C22.0692 10.5227 19.8721 10.916 17.8945 11.8627C15.9168 12.8093 14.2326 14.274 13.0207 16.1011C11.8086 17.9282 11.1142 20.0493 11.011 22.2394C10.9079 24.4296 11.3998 26.6066 12.4347 28.5396C13.4696 30.4725 15.0087 32.0889 16.8886 33.2172C18.7685 34.3456 20.9188 34.9437 23.1114 34.948H35.1661V22.2882L23.4375 22.2999ZM27.8032 32.9365H23.785C23.6314 32.9365 23.4778 32.953 23.3123 32.9554H22.9695C21.2267 32.9335 19.519 32.4628 18.011 31.5887C16.5031 30.7147 15.2458 29.4669 14.3605 27.9655C13.4752 26.4641 12.9917 24.76 12.9567 23.0173C12.9217 21.2748 13.3364 19.5526 14.1607 18.0169C14.9848 16.4812 16.191 15.1839 17.6626 14.2499C19.1343 13.3161 20.8217 12.7771 22.5623 12.6851C24.3028 12.5933 26.0376 12.9514 27.5994 13.7251C29.1612 14.4987 30.4973 15.6619 31.4788 17.1022H26.8081C25.9195 16.524 24.9082 16.1614 23.8546 16.0432C22.8011 15.9249 21.7346 16.0544 20.74 16.4213C19.7453 16.7882 18.8501 17.3822 18.1257 18.1563C17.4011 18.9303 16.8675 19.8627 16.5672 20.8794C16.2668 21.8962 16.208 22.969 16.3955 24.0123C16.5831 25.0557 17.0117 26.0409 17.6473 26.8894C18.2829 27.7379 19.1079 28.4262 20.0565 28.8996C21.0052 29.3728 22.0512 29.6179 23.1114 29.6155H27.7986L27.8032 32.9365ZM33.1972 32.9554H29.7982L29.8147 32.9436H29.7982V29.6155H33.1972V32.9554ZM33.1972 27.63H29.7982V24.2972H33.1972V27.63Z" fill="white"/>
<path d="M27.8035 29.6179H29.7984V30.5657H27.8035V29.6179Z" fill="#999999"/>
<path d="M26.189 24.2926H27.8033V25.2404H29.7959V24.2926H31.259V24.2902H26.189V24.2926Z" fill="#999999"/>
</svg>

<svg width="200" height="47" fill="none" xmlns="http://www.w3.org/2000/svg"><path d="M75.53 31.86h-3.238V14.133h6.65c.803-.012 1.6.153 2.332.483a5.61 5.61 0 011.784 1.28 5.804 5.804 0 011.15 1.811 5.58 5.58 0 01.204 3.613 5.409 5.409 0 01-.613 1.398 5.838 5.838 0 01-2.362 2.139 1036.594 1036.594 0 005.18 7.003h-2.544a1.984 1.984 0 01-.613-.113 2.998 2.998 0 01-.722-.351 5.379 5.379 0 01-.78-.613 6.048 6.048 0 01-.784-.942l-3.226-4.355H75.53v6.374zm3.512-9.637c.31-.002.615-.072.894-.204a2.34 2.34 0 00.743-.534c.213-.224.382-.486.5-.772.123-.287.186-.596.186-.907 0-.318-.062-.632-.185-.924a2.596 2.596 0 00-.5-.772 2.363 2.363 0 00-.744-.532 2.083 2.083 0 00-.894-.204H75.53v4.837l3.512.012zm16.224-8.09h2.936l7.753 17.726h-2.019a2.334 2.334 0 01-1.262-.357 2.223 2.223 0 01-.855-.991l-1.054-2.4h-8.063l-1.039 2.4c-.085.2-.203.384-.348.545a2.37 2.37 0 01-.507.425c-.19.122-.397.215-.614.278a2.22 2.22 0 01-.663.1h-2.019l7.754-17.726zm-1.127 10.724h5.19l-2.316-5.369a3.046 3.046 0 01-.217-.68 5.238 5.238 0 01-.07-.47 4.07 4.07 0 01-.073.476 3.592 3.592 0 01-.205.674l-2.31 5.369zm21.137 7.003h-3.257v-7.51a1.432 1.432 0 00-.172-.705 7.403 7.403 0 00-.458-.705l-6.508-8.807h2.487c.499-.01.993.1 1.441.321.418.216.774.535 1.034.928l3.5 4.738c.103.138.179.293.225.458.041.155.063.256.071.296.016-.098.039-.195.07-.29a1.34 1.34 0 01.241-.464l3.488-4.726a2.66 2.66 0 011.034-.946 3.155 3.155 0 011.441-.315h2.516l-6.525 8.82a7.02 7.02 0 00-.258.365 3.515 3.515 0 00-.204.327 1.438 1.438 0 00-.172.705l.006 7.51zm25.059-8.51v6.81c-.401.37-.854.68-1.343.922a8.145 8.145 0 01-1.569.581 10.96 10.96 0 01-1.732.296c-.596.053-1.203.08-1.815.08a8.893 8.893 0 01-3.55-.712 9.254 9.254 0 01-2.9-1.937 9.057 9.057 0 01-1.954-2.868 9.042 9.042 0 010-7.046 9.096 9.096 0 011.962-2.877 9.297 9.297 0 012.9-1.936 9.284 9.284 0 017.029-.037 9.178 9.178 0 012.857 1.87l-.123.112a1.73 1.73 0 01-.504.35c-.192.08-.398.12-.605.116a1.38 1.38 0 01-.798-.246 7.86 7.86 0 00-2.003-.98 7.417 7.417 0 00-2.303-.351 7.545 7.545 0 00-2.012.265 7.318 7.318 0 00-1.803.758 7.848 7.848 0 00-1.534 1.172c-.46.453-.857.963-1.183 1.519a7.735 7.735 0 00-.765 1.795 7.175 7.175 0 00-.274 1.992 7.078 7.078 0 00.28 1.993 7.545 7.545 0 002.005 3.313c.47.454.994.848 1.561 1.174a7.71 7.71 0 003.861 1.023 9.195 9.195 0 002.502-.338 8.817 8.817 0 002.291-1.02v-4.251h-1.582a1.473 1.473 0 01-1.089-.45 1.497 1.497 0 01-.404-1.044v-.05l4.597.003zm6.76 8.51h-1.567V14.133h6.291a4.988 4.988 0 011.969.388 5.093 5.093 0 011.596 1.065c.459.452.825.988 1.079 1.577.265.61.399 1.266.395 1.93a5.34 5.34 0 01-1.178 3.304 4.654 4.654 0 01-1.329 1.12 4.351 4.351 0 01-1.692.537l5.94 7.806h-.739c-.859 0-1.497-.315-1.904-.938l-5.228-6.868h-3.633v7.806zm0-16.182v6.829h4.724a3.478 3.478 0 002.451-.997c.316-.313.568-.682.745-1.087.185-.42.279-.873.276-1.33a3.206 3.206 0 00-.276-1.323 3.508 3.508 0 00-1.849-1.82 3.365 3.365 0 00-1.347-.272h-4.724zM164.15 31.86h-1.432V14.133h1.432V31.86zm6.088 0V14.132h6.522a8.722 8.722 0 014.47 1.211 9.042 9.042 0 013.189 3.186 8.823 8.823 0 010 8.944 9.131 9.131 0 01-1.392 1.794 8.842 8.842 0 01-6.267 2.591h-6.522zm6.522-1.547a7.137 7.137 0 002.862-.575 7.497 7.497 0 002.326-1.565 7.316 7.316 0 001.572-2.325 7.337 7.337 0 000-5.691 7.394 7.394 0 00-1.572-2.332 7.473 7.473 0 00-2.326-1.571 7.137 7.137 0 00-2.862-.577h-4.975v14.636h4.975zm20.103-13.839a8.475 8.475 0 01-.503-.37c-.3-.24-.65-.408-1.025-.493a3.719 3.719 0 00-.821-.074 3.916 3.916 0 00-2.502.89 3.107 3.107 0 00-.775.95 2.436 2.436 0 00-.286 1.149c-.011.387.049.772.182 1.136.131.31.344.581.615.784a4.67 4.67 0 001.13.63c.467.193 1.045.41 1.732.649.366.136.707.26 1.026.371.314.115.616.233.894.351.27.114.533.24.789.382.244.137.479.292.701.463.559.415.987.982 1.23 1.632.242.679.362 1.394.353 2.114a4.64 4.64 0 01-.459 2.087 4.771 4.771 0 01-1.241 1.575 5.536 5.536 0 01-1.832.994 7.08 7.08 0 01-2.25.344c-1.548 0-2.851-.457-3.912-1.37a6.402 6.402 0 01-1.228-1.495l.185-.111c.236-.145.506-.226.783-.235.193 0 .385.026.571.08.183.055.351.155.486.291.284.27.594.512.924.723.246.152.508.277.782.37.23.075.467.123.708.142.226.016.46.028.701.036a5.268 5.268 0 001.495-.167 4.005 4.005 0 001.354-.612c.403-.284.739-.653.982-1.081.264-.48.396-1.02.381-1.567a3.762 3.762 0 00-.298-1.632 2.655 2.655 0 00-.821-.994 4.843 4.843 0 00-1.249-.636 58.84 58.84 0 01-1.552-.576c-.704-.28-1.346-.54-1.925-.777a6.144 6.144 0 01-1.482-.847 3.346 3.346 0 01-.958-1.204 4.33 4.33 0 01-.341-1.852c-.008-.654.15-1.3.459-1.877a4.882 4.882 0 011.186-1.44 5.494 5.494 0 011.641-.927 5.445 5.445 0 011.831-.326c.483-.006.963.063 1.424.204a5.683 5.683 0 012.123 1.228c.285.264.548.524.788.78l-.386.27a1.334 1.334 0 01-.34.18c-.152.049-.31.072-.468.068a1.441 1.441 0 01-.802-.21zM67.034 22.38v7.43a6.57 6.57 0 01-1.455 1.1c-.52.29-1.072.52-1.643.689a9.82 9.82 0 01-1.786.345c-.621.063-1.246.095-1.871.094a8.916 8.916 0 01-3.542-.703 9.376 9.376 0 01-2.901-1.934 9.095 9.095 0 01-1.958-2.872 8.75 8.75 0 01-.715-3.528 8.891 8.891 0 011.233-4.567 9.34 9.34 0 011.438-1.84 9.118 9.118 0 014.027-2.32 9.017 9.017 0 012.42-.32 8.542 8.542 0 011.952.222 9.104 9.104 0 011.849.644c.594.287 1.16.63 1.69 1.022.542.4 1.046.847 1.506 1.337l-.748.755a2.179 2.179 0 01-1.676.705 2.182 2.182 0 01-1.27-.395 6.028 6.028 0 00-1.536-.756 5.636 5.636 0 00-1.759-.272 5.702 5.702 0 00-2.26.458 5.908 5.908 0 00-3.141 3.072 5.52 5.52 0 00-.467 2.249 5.43 5.43 0 00.485 2.283 6.016 6.016 0 002.229 2.566 6.06 6.06 0 003.269.956 9.132 9.132 0 002.276-.333 4.282 4.282 0 001.07-.458v-2.492l-1.026-.018a2.135 2.135 0 01-.894-.192 1.364 1.364 0 01-.629-.626 2.808 2.808 0 01-.236-1.304v-.991l6.069-.006zm-23.16 3.513c1.457-11.387-6.593-21.799-17.98-23.255C14.505 1.18 4.093 9.23 2.637 20.618c-1.457 11.387 6.593 21.8 17.98 23.256 11.387 1.457 21.8-6.593 23.256-17.98z" fill="#070707"/><path d="M24.026 22.929v1.992h4.364v3.333h-4.333v-.012c-.116 0-.236.012-.352.012a4.798 4.798 0 01-1.875-.376 4.864 4.864 0 01-2.127-1.744 4.813 4.813 0 017.041-6.413h8.51a12.138 12.138 0 10-11.551 15.856h12.054V22.924l-11.73.005zm4.364 10.636h-4.02c-.151 0-.307.017-.473.02h-.35a10.144 10.144 0 01-8.79-14.945 10.142 10.142 0 0117.314-.909h-4.675a6.808 6.808 0 10-3.695 12.528h4.688v3.306zm5.393.02h-3.399l.02-.013h-.02v-3.309h3.4v3.321zm0-5.326h-3.399v-3.333h3.4v3.333z" fill="#262626"/><path d="M23.438 22.3v1.992h4.365v3.333h-4.337v-.012c-.116 0-.236.012-.35.012a4.791 4.791 0 01-3.992-2.127 4.837 4.837 0 01-.445-4.564 4.815 4.815 0 016.309-2.572 4.83 4.83 0 011.182.71h8.51a14.249 14.249 0 00-.372-1.003 12.136 12.136 0 00-23.297 4.17 12.138 12.138 0 0012.1 12.709h12.055v-12.66l-11.728.012zm4.365 10.637h-4.018c-.154 0-.307.016-.473.018h-.343a10.142 10.142 0 118.51-15.853h-4.67a6.807 6.807 0 10-3.698 12.514H27.8l.004 3.32zm5.394.018h-3.399l.017-.011h-.017v-3.329h3.4v3.34zm0-5.325h-3.399v-3.333h3.4v3.333z" fill="#fff"/><path d="M27.803 29.618h1.995v.948h-1.994v-.948zm-1.614-5.325h1.614v.947h1.993v-.947h1.463v-.003h-5.07v.003z" fill="#999"/></svg>
